src/icons/sml.svg

<svg viewBox="0 0 24 24" xmlns="http://www.w3.org/2000/svg">
  <path
    d="M4.747 6.562H11.184C12.386 6.562 13.36 7.536 13.36 8.738V17.44H11.184V8.738H9.008V16.352H6.833V8.738H4.746V17.44H2.481V8.738C2.48075 8.44451 2.53987 8.154 2.65481 7.88396C2.76975 7.61391 2.93813 7.3699 3.14982 7.16662C3.36151 6.96334 3.61214 6.80498 3.88662 6.70108C4.1611 6.59717 4.45376 6.54986 4.747 6.562ZM14.991 6.562H17.167V15.264H21.519V17.44H14.99L14.991 6.562Z"
    fill="#F44336"
  />
</svg>

<svg viewBox="0 0 24 24" xmlns="http://www.w3.org/2000/svg">
  <path
    d="M4.747 6.562h6.437c1.202 0 2.176.974 2.176 2.176v8.702h-2.176V8.738H9.008v7.614H6.833V8.738H4.746v8.702H2.481V8.738a2.176 2.176 0 0 1 2.266-2.176zm10.244 0h2.176v8.702h4.352v2.176H14.99z"
    fill="#f44336"
  />
</svg>
